app/dist/common/images/nippo-ltd.svg

<svg height="18" viewBox="0 0 18 18" width="18" xmlns="http://www.w3.org/2000/svg"><path d="m0 0h18v18h-18z" fill="#b80060"/><path d="m6 6.87v6.16h1v-6.16c0-.89.92-1.87 2-1.87 1.14 0 2 .98 2 1.87v6.16h1v-6.16c0-1.6-1.34-2.9-3-2.9s-3 1.3-3 2.9zm-1 0c0-2.14 1.8-3.87 4-3.87s4 1.73 4 3.87v7.13h-3v-7.13c0-.36-.27-.87-1-.87-.67 0-1 .51-1 .87v7.13h-3z" fill="#fff"/></svg>

<!-- by TradingView --><svg width="18" height="18" viewBox="0 0 18 18" xmlns="http://www.w3.org/2000/svg"><path fill="#B80060" d="M0 0h18v18H0z"/><path d="M6 6.87v6.16h1V6.87C7 5.98 7.92 5 9 5c1.14 0 2 .98 2 1.87v6.16h1V6.87c0-1.6-1.34-2.9-3-2.9s-3 1.3-3 2.9Zm-1 0C5 4.73 6.8 3 9 3s4 1.73 4 3.87V14h-3V6.87C10 6.51 9.73 6 9 6c-.67 0-1 .51-1 .87V14H5V6.87Z" fill="#fff"/></svg>
